!!!!SEGMENT: pl-sa--3-a-i-3--005_binder-christlieb-siegmund-missa-ex-c-benedictus.krn
!!!id: 17xx:591
!!!COM: Binder, Christlieb Siegmund
!!!OTL: Missa ex C – Benedictus
!!!PDT: 1814
!!!SMS-siglum: PL-SA
!!!SMS-shelfmark: 3/A I 3
!!!NIFC-rismID: 1001036472
!!!URL-scan: http://bc.bdsandomierz.pl/dlibra/publication/1271/edition/1239/content
!!!ONB-nifc: UWAGA: części Mszy: Kyrie, Gloria, Credo, Sanctus, Benedictus, Agnus Dei
!!!SMS-variant:
!!!SMS-altvar:
**kern	**fba	**dynam	**kern	**dynam	**kern	**dynam	**kern	**kern	**kern	**text
*part6	*	*part6	*part5	*part5	*part4	*part4	*part3	*part2	*part1	*part1
*	*	*	*group2	*	*group2	*	*group1	*group1	*group1	*
*staff6	*	*	*staff5	*	*staff4	*	*staff3	*staff2	*staff1	*staff1
*I"Organo.	*	*	*I"Violino 2do.	*	*I"Violino Primo	*	*I"Tenore	*I"Alto.	*I"Canto.	*
*I'org	*	*	*I'vl 2	*	*I'vl 1	*	*I'T	*I'A	*I'S	*
*clefF4	*	*	*clefG2	*	*clefG2	*	*clefC4	*clefC3	*clefC1	*
*k[f#]	*	*	*k[f#]	*	*k[f#]	*	*k[f#]	*k[f#]	*k[f#]	*
*M2/4	*	*	*M2/4	*	*M2/4	*	*M2/4	*M2/4	*M2/4	*
=1	=1	=1	=1	=1	=1	=1	=1	=1	=1	=1
!LO:TX:a:i:t=Andantino	!	!	!LO:TX:a:i:t=Andante	!	!LO:TX:b:i:t=Benedictus	!	!	!	!LO:TX:a:t=14.	!
!LO:TX:a:i:t=Benedictus	!	!	!LO:TX:b:i:t=Benedictus	!	!LO:TX:a:i:t=Andante	!	!LO:TX:a:i:t=Benedictus Tacett	!LO:TX:a:i:t=Benedictus Tacett	!LO:TX:a:t=Andante	!
!	!	!	!	!	!	!	!	!	!LO:N:vis=00	!
8r	.	.	8r	.	8.dd\L	.	2ryy	2ryy	0r	.
8G\L	.	.	8bL 8d/	.	.	.	.	.	.	.
.	.	.	.	.	32ee\LL	.	.	.	.	.
.	.	.	.	.	32ff#\JJJ	.	.	.	.	.
8G\	.	.	8b 8d/	.	32gg\LLL	.	.	.	.	.
.	.	.	.	.	32ff#\	.	.	.	.	.
.	.	.	.	.	32gg\	.	.	.	.	.
.	.	.	.	.	32aa\JJJ	.	.	.	.	.
8G\J	.	.	8bJ 8d/	.	32bb\LLL	.	.	.	.	.
.	.	.	.	.	32gg\	.	.	.	.	.
.	.	.	.	.	32dd\	.	.	.	.	.
.	.	.	.	.	32b\JJJ	.	.	.	.	.
=2	=2	=2	=2	=2	=2	=2	=2	=2	=2	=2
8G\L	3	.	16b/LL	.	16dd\LL	.	2ryy	2ryy	.	.
.	.	.	16a/J	.	16cc\J	.	.	.	.	.
8D\	7_	.	8f#/J	.	8a\J	.	.	.	.	.
8D\	.	.	8d/L	.	8r	.	.	.	.	.
8D\J	.	.	8f#/J	.	32d/LLL	.	.	.	.	.
.	.	.	.	.	32f#/	.	.	.	.	.
.	.	.	.	.	32a/	.	.	.	.	.
.	X	.	.	.	32cc/JJJ	.	.	.	.	.
=3	=3	=3	=3	=3	=3	=3	=3	=3	=3	=3
8F#\L	5	.	16a/LL	.	16cc\LL	.	2ryy	2ryy	.	.
.	.	.	16g/J	.	16b\J	.	.	.	.	.
8G\	.	.	8g/J	.	8b\J	.	.	.	.	.
8G\J	.	.	16g/LL	.	16b\LL	.	.	.	.	.
.	.	.	16b/	.	16dd\	.	.	.	.	.
8r	.	.	16cc/	.	16ee\	.	.	.	.	.
.	.	.	16dd/JJ	.	16ffn\JJ	.	.	.	.	.
=4	=4	=4	=4	=4	=4	=4	=4	=4	=4	=4
8c\L	3	.	16cc\LL	.	16ee\LL	.	2ryy	2ryy	.	.
.	.	.	16cc\JJ	.	16ee\JJ	.	.	.	.	.
8A\	6\	.	32a/LLL	.	32ff#X\LLL	.	.	.	.	.
.	.	.	32g/	.	32ee\	.	.	.	.	.
.	.	.	32a/	.	32ff#\	.	.	.	.	.
.	.	.	32cc/JJJ	.	32aa\JJJ	.	.	.	.	.
*	*	*	*tremolo	*	*	*	*	*	*	*
8G\	.	.	16b/LL	.	16gg\LL	.	.	.	.	.
.	.	.	16b/	.	16gg\	.	.	.	.	.
8G\J	.	.	16b/	.	16dd\	.	.	.	.	.
.	.	.	16b/JJ	.	16dd\JJ	.	.	.	.	.
*	*	*	*Xtremolo	*	*	*	*	*	*	*
=5	=5	=5	=5	=5	=5	=5	=5	=5	=5	=5
!	!	!	!	!	!	!	!	!	!LO:N:vis=00	!
8G\L	5	.	16b/LL	.	16dd\LL	.	2ryy	2ryy	0r	.
.	.	.	16a/J	.	16cc\J	.	.	.	.	.
8D\	7_	.	8f#/J	.	8a\J	.	.	.	.	.
8D\	.	.	8d/L	.	8r	.	.	.	.	.
8D\J	.	.	8f#/J	.	32d/LLL	.	.	.	.	.
.	.	.	.	.	32f#/	.	.	.	.	.
.	.	.	.	.	32a/	.	.	.	.	.
.	X	.	.	.	32cc/JJJ	.	.	.	.	.
!	!	!	!	!	!LO:LB:g=original	!	!	!	!	!
=6	=6	=6	=6	=6	=6	=6	=6	=6	=6	=6
8F#\L	5	.	16a/LL	.	16cc\LL	.	2ryy	2ryy	.	.
.	.	.	16g/J	.	16b\J	.	.	.	.	.
8G\	.	.	8g/J	.	8b\J	.	.	.	.	.
8G\J	.	.	16g/LL	.	16b\LL	.	.	.	.	.
.	.	.	16b/	.	16dd\	.	.	.	.	.
8r	.	.	16cc/	.	16ee\	.	.	.	.	.
.	.	.	16dd/JJ	.	16ffn\JJ	.	.	.	.	.
=7	=7	=7	=7	=7	=7	=7	=7	=7	=7	=7
!	!	!	!	!	!LO:SIC:v:s=16ffn	!	!	!	!	!
8G\L	n	.	16dd\LL	.	16ff#\LL	.	2ryy	2ryy	.	.
.	7	.	16cc\J	.	16ee\J	.	.	.	.	.
8c\J	3	.	8cc\J	.	8ee\J	.	.	.	.	.
8r	.	.	16a\LL	.	16a\LL	.	.	.	.	.
.	.	.	16cc#X\	.	16cc#X\	.	.	.	.	.
8A\	7_ #_	.	16cc#\	.	16ee\	.	.	.	.	.
.	.	.	16ee\JJ	.	16gg\JJ	.	.	.	.	.
!	!	!	!LO:LB:g=original	!	!	!	!	!	!	!
=8	=8	=8	=8	=8	=8	=8	=8	=8	=8	=8
8A\L	.	.	16ee\LL	.	16gg\LL	.	2ryy	2ryy	.	.
.	.	.	16dd\J	.	16ff#X\J	.	.	.	.	.
8d\J	x #	.	8dd\J	.	8ff#\J	.	.	.	.	.
!	!	!	!LO:TX:a:t=P:problem:mixed beam	!	!	!	!	!	!	!
8r	.	.	16f#/LL	.	16dd\LL	.	.	.	.	.
.	.	.	16dd\	.	16ff#\	.	.	.	.	.
8d\	n7	.	16ff#\	.	16aa\	.	.	.	.	.
.	.	.	16aa\JJ	.	16cccn\JJ	.	.	.	.	.
=9	=9	=9	=9	=9	=9	=9	=9	=9	=9	=9
!	!	!	!	!	!	!	!	!	!LO:N:vis=00	!
8D\L	7	.	16aa\LL	.	32ccc\LLL	.	2ryy	2ryy	0r	.
.	.	.	.	.	32bb\	.	.	.	.	.
.	.	.	16cc\J	.	32aa\	.	.	.	.	.
.	.	.	.	.	32bb\JJ	.	.	.	.	.
8G\J	.	.	8cc\J	.	8gg\J	.	.	.	.	.
!LO:LB:g=original	!	!	!	!	!	!	!	!	!	!
8r	.	.	16a\LL	.	16dd\LL	.	.	.	.	.
.	.	.	16dd\	.	16ff#\	.	.	.	.	.
8D\	.	.	16ff#\	.	16aa\	.	.	.	.	.
.	.	.	16aa\JJ	.	16ccc\JJ	.	.	.	.	.
=10	=10	=10	=10	=10	=10	=10	=10	=10	=10	=10
8D\L	.	.	8aa\L	.	32ccc\LLL	.	2ryy	2ryy	.	.
.	.	.	.	.	32bb\	.	.	.	.	.
.	.	.	.	.	32aa\	.	.	.	.	.
.	.	.	.	.	32bb\JJJ	.	.	.	.	.
8G\J	.	.	16cc\L	.	8gg\	.	.	.	.	.
.	.	.	16b\JJ	.	.	.	.	.	.	.
8r	.	.	8a\L	.	16dd\LL	.	.	.	.	.
.	.	.	.	.	16ff#\	.	.	.	.	.
8D\	.	.	8aa\J	.	16aa\	.	.	.	.	.
.	.	.	.	.	16ccc\JJ	.	.	.	.	.
=11	=11	=11	=11	=11	=11	=11	=11	=11	=11	=11
!	!	!	!LO:TUP:a:problem:klamra łukowa:global	!	!LO:TUP:a:problem:klamra łukowa:global	!	!	!	!	!
8G\L	.	.	24gg\LL	.	24bb\LL	.	2ryy	2ryy	.	.
.	.	.	24ff#\	.	24aa\	.	.	.	.	.
.	.	.	24gg\JJ	.	24bb\JJ	.	.	.	.	.
8c\J	.	.	32ff#\LLL	.	32ddd\LLL	.	.	.	.	.
.	.	.	32ee\	.	32ccc\	.	.	.	.	.
.	.	.	32dd\	.	32bb\	.	.	.	.	.
.	.	.	32cc\JJJ	.	32aa\JJJ	.	.	.	.	.
!LO:TX:a:t=P:problem:mixed beam	!	!	!	!	!	!	!	!	!	!
8d\L	4	.	8f#/L	.	8gg\L	.	.	.	.	.
8D/J	#	.	8f#/J	.	8ff#\J	.	.	.	.	.
!	!	!	!	!	!LO:LB:g=original	!	!	!	!	!
=12	=12	=12	=12	=12	=12	=12	=12	=12	=12	=12
16G\LL	.	.	16g/LL	.	16gg\LL	.	2ryy	2ryy	.	.
16D\	.	.	16d/	.	16dd\J	.	.	.	.	.
16G\	.	.	16g/	.	8dd\J	.	.	.	.	.
16D\JJ	.	.	16d/JJ	.	.	.	.	.	.	.
16F#\LL	.	.	16f#/LL	.	32dd\LLL	.	.	.	.	.
.	.	.	.	.	32cc\	.	.	.	.	.
16D\	.	.	16d/	.	32a\	.	.	.	.	.
.	.	.	.	.	32f#\JJJ	.	.	.	.	.
16F#\	.	.	16f#/	.	32d/LLL	.	.	.	.	.
.	.	.	.	.	32f#/	.	.	.	.	.
16D\JJ	.	.	16d/JJ	.	32a/	.	.	.	.	.
.	.	.	.	.	32cc/JJJ	.	.	.	.	.
=13	=13	=13	=13	=13	=13	=13	=13	=13	=13	=13
!LO:TX:a:t=P:problem:mixed beam	!	!	!LO:TUP:b	!	!	!	!	!	!	!
!	!	!	!	!	!	!	!	!	!LO:N:vis=0	!
8G\L	.	.	24g/LL	.	24b\LL	.	2ryy	2ryy	1r	.
.	.	.	24f#/	.	24a\	.	.	.	.	.
.	.	.	24g/JJ	.	24b\JJ	.	.	.	.	.
8C\	.	.	16e/LL	.	32dd\LLL	.	.	.	.	.
.	.	.	.	.	32cc\	.	.	.	.	.
.	.	.	16c/JJ	.	32b\	.	.	.	.	.
.	.	.	.	.	32a\JJJ	.	.	.	.	.
8D\	4	.	8B/L	.	8g/L	.	.	.	.	.
!	!	!	!LO:SIC:v:s=8A	!	!	!	!	!	!	!
8DD/J	#	.	8B/J	.	8f#X/J	.	.	.	.	.
=14	=14	=14	=14	=14	=14	=14	=14	=14	=14	=14
8GG/	.	.	16G/LL	.	16g/LL	.	2ryy	2ryy	.	.
.	.	.	16B/	.	16d/	.	.	.	.	.
8r	.	.	16B/	.	16d/	.	.	.	.	.
.	.	.	16A/JJ	.	16c/JJ	.	.	.	.	.
!LO:TX:a:t=P:problem:podwójna kreska taktowa	!	!	!	!	!	!	!	!	!	!
4r	.	.	4G/	.	4B/	.	.	.	.	.
!	!	!	!LO:LB:g=original	!	!	!	!	!	!	!
=15	=15	=15	=15	=15	=15	=15	=15	=15	=15	=15
!	!	!	!	!	!	!LO:DY:b:t=pia	!	!	!	!
8r	.	.	8r	.	8r	p	2ryy	2ryy	8.dd\L	Be-
!	!	!LO:DY:b:t=pia	!	!	!	!	!	!	!	!
8G\L	.	p	8B/L	.	8bL 8d/	.	.	.	.	.
.	.	.	.	.	.	.	.	.	32ee\LL	.
.	.	.	.	.	.	.	.	.	32ff#\JJJ	.
!	!	!	!	!LO:DY:a:t=Pia:	!	!	!	!	!	!
8G\	.	.	8B/	p	8b 8d/	.	.	.	32gg\LLL	.
.	.	.	.	.	.	.	.	.	32ff#\	.
.	.	.	.	.	.	.	.	.	32gg\	.
.	.	.	.	.	.	.	.	.	32aa\JJJ	.
8G\J	.	.	8B/J	.	8bJ 8d/	.	.	.	32bb\LLL	-me-
.	.	.	.	.	.	.	.	.	32gg\	.
.	.	.	.	.	.	.	.	.	32dd\	.
.	.	.	.	.	.	.	.	.	32b\JJJ	.
=16	=16	=16	=16	=16	=16	=16	=16	=16	=16	=16
8G\L	.	.	8B/L	.	16b/LL	.	2ryy	2ryy	16dd\LL	-dic-
.	.	.	.	.	16a/J	.	.	.	16cc\JJ	.
8F#\	.	.	8A/	.	8f#/J	.	.	.	8a\	-tus
8D\	.	.	8d/	.	8r	.	.	.	8r	.
8F#\J	.	.	8f#/J	.	32d/LLL	.	.	.	16a\LL	qui
.	.	.	.	.	32f#/	.	.	.	.	.
.	.	.	.	.	32a/	.	.	.	16cc\JJ	.
.	.	.	.	.	32cc/JJJ	.	.	.	.	.
=17	=17	=17	=17	=17	=17	=17	=17	=17	=17	=17
8F#\L	.	.	16a/LL	.	16cc\LL	.	2ryy	2ryy	16cc\LL	ve-
.	.	.	16g/J	.	16b\J	.	.	.	16b\JJ	.
8G\	.	.	8g/J	.	8b\J	.	.	.	8b\	-nit
8G\J	.	.	16g/LL	.	16b\LL	.	.	.	16r	.
.	.	.	16b/	.	16dd\	.	.	.	16dd\LL	qui
16r	.	.	16cc/	.	16ee\	.	.	.	16ee\	.
16G\	n7	.	16dd/JJ	.	16ffn\JJ	.	.	.	16ffn\JJ	.
!	!	!	!	!	!LO:LB:g=original	!	!	!	!	!
=18	=18	=18	=18	=18	=18	=18	=18	=18	=18	=18
8c\L	.	.	8cc\L	.	16ee\LL	.	2ryy	2ryy	8ee\L	ve-
.	.	.	.	.	16ee\JJ	.	.	.	.	.
8A\J	6\	.	32a\LL	.	32ff#X\LLL	.	.	.	8ff#X\	.
.	.	.	32g\	.	32ee\	.	.	.	.	.
.	.	.	32a\	.	32ff#\	.	.	.	.	.
.	.	.	32cc\JJJ	.	32aa\JJJ	.	.	.	.	.
!LO:LB:g=original	!	!	!	!	!	!	!	!	!	!
8G\L	.	.	16b/LL	.	16gg\LL	.	.	.	8gg\	.
.	.	.	16b/	.	16gg\	.	.	.	.	.
8G\J	.	.	16g/	.	16dd\	.	.	.	8dd\J	.
.	.	.	16g/JJ	.	16dd\JJ	.	.	.	.	.
=19	=19	=19	=19	=19	=19	=19	=19	=19	=19	=19
8G\L	.	.	8b/L	.	16dd\LL	.	2ryy	2ryy	16dd\LL	.
.	.	.	.	.	16cc\J	.	.	.	16cc\JJ	.
8F#\	.	.	8f#/	.	8a\J	.	.	.	8a\	-nit
8D\	.	.	8d/	.	8r	.	.	.	8r	.
8F#\J	.	.	8f#/J	.	32d/LLL	.	.	.	8cc\	qui-
.	.	.	.	.	32f#/	.	.	.	.	.
.	.	.	.	.	32a/	.	.	.	.	.
.	.	.	.	.	32cc/JJJ	.	.	.	.	.
!	!	!	!	!	!	!	!	!	!LO:LB:g=original	!
=20	=20	=20	=20	=20	=20	=20	=20	=20	=20	=20
8F#\L	.	.	16a/LL	.	16cc\LL	.	2ryy	2ryy	16cc\LL	-ve-
.	.	.	16g/J	.	16b\J	.	.	.	16b\JJ	.
8G\	.	.	8g/J	.	8b\J	.	.	.	8b\	-nit
8G\J	.	.	16g/LL	.	16b\LL	.	.	.	16r	.
.	.	.	16b/	.	16dd\	.	.	.	16dd\LL	qui
16r	.	.	16cc/	.	16ee\	.	.	.	16ee\	.
16G\	n7_	.	16dd/JJ	.	16ffn\JJ	.	.	.	16ffn\JJ	.
=21	=21	=21	=21	=21	=21	=21	=21	=21	=21	=21
!	!	!	!	!	!	!	!	!	!LO:SIC:v:s=16ffn	!
8G\L	.	.	16dd\LL	.	16ff#\LL	.	2ryy	2ryy	16ff#\LL	ve-
.	.	.	16cc\J	.	16ee\J	.	.	.	16ee\JJ	.
8c\J	3	.	8cc\J	.	8ee\J	.	.	.	8ee\	-nit
8r	.	.	16a\LL	.	16a\LL	.	.	.	16r	.
.	.	.	16a\	.	16cc#X\	.	.	.	16cc#X\LL	qui
8A\	7 #	.	16cc#X\	.	16ee\	.	.	.	16ee\	.
.	.	.	16ee\JJ	.	16gg\JJ	.	.	.	16gg\JJ	.
=22	=22	=22	=22	=22	=22	=22	=22	=22	=22	=22
8A\L	7 #	.	16ee\LL	.	16gg\LL	.	2ryy	2ryy	16gg\LL	ve-
.	.	.	16dd\J	.	16ff#X\J	.	.	.	16ff#X\JJ	.
8d\J	x #	.	8dd\J	.	8ff#\J	.	.	.	8ff#\	-nit
!	!	!	!LO:LB:g=original	!	!	!	!	!	!	!
8r	.	.	16dd\LL	.	16dd\LL	.	.	.	16r	.
.	.	.	16ff#\	.	16ff#\	.	.	.	16f#X/LL	qui
8D\	n7	.	16ff#\	.	16aa\	.	.	.	16a/	.
.	.	.	16aa\JJ	.	16ccc\JJ	.	.	.	16ccn/JJ	.
=23	=23	=23	=23	=23	=23	=23	=23	=23	=23	=23
8F#\L	5	.	16aa\LL	.	16ccc\LL	.	2ryy	2ryy	16cc\LL	ve-
.	.	.	16gg\J	.	16bb\J	.	.	.	16b\JJ	.
8G\J	.	.	8gg\J	.	8aa\J	.	.	.	8b\	-nit
!	!	!	!	!	!LO:LB:g=original	!	!	!	!	!
16G\LL	.	.	16gg\LL	.	16gg\LL	.	.	.	4gg\	in
16D\	.	.	16dd\	.	16dd\	.	.	.	.	.
16BB\	.	.	16b\	.	16b\	.	.	.	.	.
16GG\JJ	.	.	16g\JJ	.	16g\JJ	.	.	.	.	.
=24	=24	=24	=24	=24	=24	=24	=24	=24	=24	=24
8r	.	.	8r	.	8r	.	2ryy	2ryy	32gg\LLL	No-
.	.	.	.	.	.	.	.	.	32ff#\	.
.	.	.	.	.	.	.	.	.	32gg\	.
.	.	.	.	.	.	.	.	.	32aa\JJJ	.
8G\L	.	.	8B/L	.	8d/L	.	.	.	16bb\LL	.
.	.	.	.	.	.	.	.	.	16aa\JJ	.
8G\	.	.	8B/	.	8d/	.	.	.	16gg\LL	.
.	.	.	.	.	.	.	.	.	16ff#\	.
8G\J	.	.	8B/J	.	8d/J	.	.	.	16ee\	.
.	.	.	.	.	.	.	.	.	16dd\JJ	.
!	!	!	!	!	!	!	!	!	!LO:LB:g=original	!
=25	=25	=25	=25	=25	=25	=25	=25	=25	=25	=25
8r	.	.	8r	.	8r	.	2ryy	2ryy	32ee\LLL	.
.	.	.	.	.	.	.	.	.	32dd\	.
.	.	.	.	.	.	.	.	.	32ee\	.
.	.	.	.	.	.	.	.	.	32ff#\JJJ	.
8G\L	6_ 4_	.	8c/L	.	8e/L	.	.	.	16gg\LL	.
.	.	.	.	.	.	.	.	.	16ff#\JJ	.
8G\	.	.	8c/	.	8e/	.	.	.	16ee\LL	.
.	.	.	.	.	.	.	.	.	16dd\	.
8G\J	.	.	8c/J	.	8e/J	.	.	.	16cc\	.
.	X X	.	.	.	.	.	.	.	16b\JJ	.
=26	=26	=26	=26	=26	=26	=26	=26	=26	=26	=26
8r	.	.	8r	.	8r	.	2ryy	2ryy	32cc\LLL	.
.	.	.	.	.	.	.	.	.	32b\	.
.	.	.	.	.	.	.	.	.	32cc\	.
.	.	.	.	.	.	.	.	.	32dd\JJJ	.
8A\L	.	.	8d/L	.	8f#/L	.	.	.	16ee\LL	.
.	.	.	.	.	.	.	.	.	16dd\JJ	.
8F#\	.	.	8d/	.	8f#/	.	.	.	16cc\LL	.
.	.	.	.	.	.	.	.	.	16b\	.
8G\J	.	.	8d/J	.	8g/J	.	.	.	16a\	.
.	.	.	.	.	.	.	.	.	16g\JJ	.
!LO:LB:g=original	!	!	!	!	!	!	!	!	!	!
=27	=27	=27	=27	=27	=27	=27	=27	=27	=27	=27
*	*	*	*tremolo	*	*tremolo	*	*	*	*	*
8D\L	.	.	16d/LL	.	16f#/LL	.	2ryy	2ryy	8f#X/	-mi-
.	.	.	16d/	.	16f#/	.	.	.	.	.
8d\J	.	.	16d/	.	16f#/	.	.	.	8dd\	-ne
.	.	.	16d/JJ	.	16f#/JJ	.	.	.	.	.
!LO:TX:a:t=P:problem:mixed beam	!	!	!	!	!	!	!	!	!	!
8A\L	#	.	16c#X/LL	.	16e/LL	.	.	.	8.cc#X\	Do-
.	.	.	16c#X/	.	16e/	.	.	.	.	.
8AA/J	.	.	16c#X/	.	16e/	.	.	.	.	.
.	.	.	16c#X/JJ	.	16e/JJ	.	.	.	16cc#\	-mi-
*	*	*	*Xtremolo	*	*Xtremolo	*	*	*	*	*
=28	=28	=28	=28	=28	=28	=28	=28	=28	=28	=28
8D\L	#	.	16d/LL	.	8f#\L	.	2ryy	2ryy	8dd\	-ni
.	.	.	16d/	.	.	.	.	.	.	.
8F#\	.	.	16a/	.	32aa\LL	.	.	.	8r	.
.	.	.	.	.	32ff#\	.	.	.	.	.
.	.	.	16a/JJ	.	32dd\	.	.	.	.	.
.	.	.	.	.	32a\JJJ	.	.	.	.	.
8E\	.	.	16g/LL	.	32a/LLL	.	.	.	4r	.
.	.	.	.	.	32g/	.	.	.	.	.
.	.	.	16g/	.	32e/	.	.	.	.	.
.	.	.	.	.	32c#X/JJJ	.	.	.	.	.
8C#X\J	.	.	16e/	.	32A/LLL	.	.	.	.	.
.	.	.	.	.	32c#X/	.	.	.	.	.
.	.	.	16e/JJ	.	32e/	.	.	.	.	.
.	.	.	.	.	32g/JJJ	.	.	.	.	.
=29	=29	=29	=29	=29	=29	=29	=29	=29	=29	=29
!	!	!	!	!	!	!	!	!	!LO:TX:a:t=2	!
!	!	!	!	!	!	!	!	!	!LO:N:vis=0	!
8D\L	.	.	16f#/LL	.	8f#\L	.	2ryy	2ryy	1r	.
.	.	.	16f#/	.	.	.	.	.	.	.
8F#\	.	.	16a/	.	32aa\LL	.	.	.	.	.
.	.	.	.	.	32ff#\	.	.	.	.	.
.	.	.	16a/JJ	.	32dd\	.	.	.	.	.
.	.	.	.	.	32a\JJJ	.	.	.	.	.
!	!	!	!	!	!LO:PB:g=original	!	!	!	!	!
8E\	.	.	16g/LL	.	32a/LLL	.	.	.	.	.
.	.	.	.	.	32g/	.	.	.	.	.
.	.	.	16g/	.	32e/	.	.	.	.	.
.	.	.	.	.	32c#X/JJJ	.	.	.	.	.
!LO:SIC:v:s=8C#	!	!	!	!	!	!	!	!	!	!
8C\J	.	.	16e/	.	32A/LLL	.	.	.	.	.
.	.	.	.	.	32c#/	.	.	.	.	.
.	.	.	16e/JJ	.	32e/	.	.	.	.	.
.	.	.	.	.	32g/JJJ	.	.	.	.	.
=30	=30	=30	=30	=30	=30	=30	=30	=30	=30	=30
!	!	!	!	!	!LO:TUP:b	!	!	!	!	!
8D\L	.	.	8d/L	.	24f#/LL	.	2ryy	2ryy	.	.
.	.	.	.	.	24e/	.	.	.	.	.
.	.	.	.	.	24f#/JJ	.	.	.	.	.
8G\J	6	.	8g/	.	32a/LLL	.	.	.	.	.
.	.	.	.	.	32g/	.	.	.	.	.
.	.	.	.	.	32f#/	.	.	.	.	.
.	.	.	.	.	32e/JJJ	.	.	.	.	.
!LO:TX:a:t=P:problem:mixed beam	!	!	!	!	!	!	!	!	!	!
8A\L	6 4	.	8a/	.	8d/L	.	.	.	.	.
8AA/J	5 3	.	8A/J	.	8c#X/J	.	.	.	.	.
!	!	!	!LO:LB:g=original	!	!	!	!	!	!	!
=31	=31	=31	=31	=31	=31	=31	=31	=31	=31	=31
*tremolo	*	*	*	*	*	*	*	*	*	*
*2\right	*	*	*	*	*	*	*	*	*	*
!	!	!LO:DY:b:t=pia	!	!LO:DY:a:t=p.	!	!LO:DY:a:t=pia	!	!	!	!
8D\L	.	p	2d/	p	8d/L	p	2ryy	2ryy	8r	.
8D\	.	.	.	.	8f#/	.	.	.	4.a\	Be-
8D\	.	.	.	.	8f#/	.	.	.	.	.
8D\J	.	.	.	.	8f#/J	.	.	.	.	.
*Xtremolo	*	*	*	*	*	*	*	*	*	*
=32	=32	=32	=32	=32	=32	=32	=32	=32	=32	=32
8r	.	.	8r	.	8r	.	2ryy	2ryy	4dd\	.
8D/L	.	.	8d/L	.	8f#/L	.	.	.	.	.
8D/	.	.	8d/	.	8f#/	.	.	.	32dd\LLL	.
.	.	.	.	.	.	.	.	.	32cc#X\	.
.	.	.	.	.	.	.	.	.	32dd\	.
.	.	.	.	.	.	.	.	.	32ee\JJJ	.
!	!	!	!	!	!	!	!	!	!LO:LB:g=original	!
8D/J	.	.	8d/J	.	8f#/J	.	.	.	32ff#\LLL	-ne-
.	.	.	.	.	.	.	.	.	32dd\	.
.	.	.	.	.	.	.	.	.	32a\	.
.	.	.	.	.	.	.	.	.	32f#\JJJ	.
=33	=33	=33	=33	=33	=33	=33	=33	=33	=33	=33
!LO:TX:a:t=P:problem:mixed beam	!	!	!	!	!	!	!	!	!	!
8A\L	8 6	.	16d/LL	.	16f#/LL	.	2ryy	2ryy	16a\LL	-dic-
.	.	.	16c#X/J	.	16e/J	.	.	.	16g\JJ	.
8AA/	7 5_	.	8c#/J	.	8e/J	.	.	.	8g\	-tus
!	!	!	!LO:TX:a:t=P:problem:mixed beam	!	!	!	!	!	!	!
8AA/	.	.	8A/L	.	8.cc#X\L	.	.	.	8.ee\L	qui
8C#X/J	.	.	8a\J	.	.	.	.	.	.	.
.	X	.	.	.	16ee\Jk	.	.	.	16gg\Jk	.
=34	=34	=34	=34	=34	=34	=34	=34	=34	=34	=34
!LO:SIC:v:s=8C#	!	!	!	!	!	!	!	!	!	!
8C/L	.	.	16g/LL	.	16ee\LL	.	2ryy	2ryy	16gg\LL	ve-
.	.	.	16f#/J	.	16dd\J	.	.	.	16ff#\JJ	.
8D/	.	.	8f#/J	.	8dd\J	.	.	.	8ff#\	-nit
8D/	4	.	8a/L	.	8ccn\L	.	.	.	4ccn\	in
8D/J	7_	.	8f#/J	.	8a\J	.	.	.	.	.
=35	=35	=35	=35	=35	=35	=35	=35	=35	=35	=35
!	!	!	!	!	!LO:TX:a:t=P:problem:mixed beam	!	!	!	!	!
8G\	X	.	8g/L	.	8g/L	.	2ryy	2ryy	8b\L	No-
8r	.	.	16b/L	.	16gg\L	.	.	.	16bb\L	.
.	.	.	16a/JJ	.	16ff#\JJ	.	.	.	16aa\JJ	.
4r	.	.	8.a/L	.	8.ff#\L	.	.	.	8.aa\L	.
.	.	.	16g/Jk	.	16ee\Jk	.	.	.	16gg\Jk	.
=36	=36	=36	=36	=36	=36	=36	=36	=36	=36	=36
!LO:TX:a:t=1	!	!	!	!	!	!	!	!	!	!
2r	.	.	8.f#/L	.	8dd\L	.	2ryy	2ryy	8ff#\L	.
.	.	.	.	.	16ee\L	.	.	.	16gg\L	.
.	.	.	32g/LL	.	16dd\JJ	.	.	.	16ff#\JJ	.
.	.	.	32f#/JJJ	.	.	.	.	.	.	.
!	!	!	!	!	!LO:LB:g=original	!	!	!	!	!
.	.	.	8.f#/L	.	8.dd\L	.	.	.	8.ff#\L	.
.	.	.	16e/Jk	.	16cc\Jk	.	.	.	16ee\Jk	.
=37	=37	=37	=37	=37	=37	=37	=37	=37	=37	=37
8G\L	6_ 4_	.	8.e/L	.	8.cc\L	.	2ryy	2ryy	8.ee\L	-mi-
8G\	.	.	.	.	.	.	.	.	.	.
.	.	.	32d/LL	.	32b\LL	.	.	.	32dd\LL	.
.	.	.	32e/JJJ	.	32cc\JJJ	.	.	.	32ee\JJJ	.
!	!	!	!LO:TX:a:t=P:problem:mixed beam	!	!	!	!	!	!	!
8G\	5 3	.	8d/L	.	8b\L	.	.	.	8dd\L	-ne
8B\J	.	.	8b\J	.	8gg\J	.	.	.	8gg\J	.
!LO:LB:g=original	!	!	!	!	!	!	!	!	!LO:LB:g=original	!
=38	=38	=38	=38	=38	=38	=38	=38	=38	=38	=38
!LO:TX:a:t=P:problem:mixed beam	!	!	!	!	!	!	!	!	!	!
8c\L	.	.	16dd\LL	.	16ff#\LL	.	2ryy	2ryy	16ff#\LL	Do-
.	.	.	16cc\	.	16ee\	.	.	.	16ee\	.
8A\	.	.	16b\	.	16dd\	.	.	.	16dd\	.
.	.	.	16a\JJ	.	16cc\JJ	.	.	.	16cc\JJ	.
8d\	.	.	8g/L	.	8b/L	.	.	.	8b\L	-mi-
8D/J	.	.	8f#/J	.	8a/J	.	.	.	8a\J	.
=39	=39	=39	=39	=39	=39	=39	=39	=39	=39	=39
!	!	!	!	!LO:DY:t=for.	!	!	!	!	!	!
8r	.	.	8r	f	8.dd\L	.	2ryy	2ryy	4g/	-ni
!	!	!LO:DY:a:t=for	!	!	!	!	!	!	!	!
8G\L	.	f	8bL 8d/	.	.	.	.	.	.	.
.	.	.	.	.	32ee\LL	.	.	.	.	.
.	.	.	.	.	32ff#\JJJ	.	.	.	.	.
8B\	.	.	8b 8d/	.	32gg\LLL	.	.	.	4r	.
.	.	.	.	.	32ff#\	.	.	.	.	.
.	.	.	.	.	32gg\	.	.	.	.	.
.	.	.	.	.	32aa\JJJ	.	.	.	.	.
8G\J	.	.	8bJ 8d/	.	32bb\LLL	.	.	.	.	.
.	.	.	.	.	32gg\	.	.	.	.	.
.	.	.	.	.	32dd\	.	.	.	.	.
.	.	.	.	.	32b\JJJ	.	.	.	.	.
=40	=40	=40	=40	=40	=40	=40	=40	=40	=40	=40
!	!	!	!	!	!	!	!	!	!LO:TX:a:t=6.	!
!	!	!	!	!	!	!	!	!	!LO:N:vis=00	!
8G\L	.	.	16b/LL	.	16dd\LL	.	2ryy	2ryy	0r	.
.	.	.	16a/J	.	16cc\J	.	.	.	.	.
8F#\	.	.	8f#/J	.	8a\J	.	.	.	.	.
!	!	!	!LO:LB:g=original	!	!	!	!	!	!	!
8D\	.	.	8d/L	.	8r	.	.	.	.	.
8F#\J	.	.	8f#/J	.	32d/LLL	.	.	.	.	.
.	.	.	.	.	32f#/	.	.	.	.	.
.	.	.	.	.	32a/	.	.	.	.	.
.	.	.	.	.	32cc/JJJ	.	.	.	.	.
=41	=41	=41	=41	=41	=41	=41	=41	=41	=41	=41
8F#\L	.	.	16a/LL	.	16cc\LL	.	2ryy	2ryy	.	.
.	.	.	16g/J	.	16b\J	.	.	.	.	.
8G\	.	.	8g/J	.	8b\J	.	.	.	.	.
8G\J	.	.	16g/LL	.	16b\LL	.	.	.	.	.
.	.	.	16b/	.	16dd\	.	.	.	.	.
16r	.	.	16cc/	.	16ee\	.	.	.	.	.
16G\	n7	.	16dd/JJ	.	16ffn\JJ	.	.	.	.	.
=42	=42	=42	=42	=42	=42	=42	=42	=42	=42	=42
8c\L	.	.	16cc\LL	.	16ee\LL	.	2ryy	2ryy	.	.
.	.	.	16cc\JJ	.	16ee\JJ	.	.	.	.	.
8A\	.	.	32a/LLL	.	32ff#X\LLL	.	.	.	.	.
.	.	.	32g/	.	32ee\	.	.	.	.	.
.	.	.	32a/	.	32ff#\	.	.	.	.	.
.	.	.	32cc/JJJ	.	32gg\JJJ	.	.	.	.	.
!	!	!	!	!	!LO:LB:g=original	!	!	!	!	!
*	*	*	*tremolo	*	*	*	*	*	*	*
8G\	6\	.	16b/LL	.	16gg\LL	.	.	.	.	.
.	.	.	16b/	.	16gg\	.	.	.	.	.
8G\J	.	.	16b/	.	16dd\	.	.	.	.	.
.	.	.	16b/JJ	.	16dd\JJ	.	.	.	.	.
=43	=43	=43	=43	=43	=43	=43	=43	=43	=43	=43
*tremolo	*	*	*	*	*	*	*	*	*	*
8D\L	7	.	16a/LL	.	24cc\LL	.	2ryy	2ryy	.	.
.	.	.	.	.	24ff#\	.	.	.	.	.
.	.	.	16a/	.	.	.	.	.	.	.
.	.	.	.	.	24aa\JJ	.	.	.	.	.
8D\	.	.	16a/	.	16ccc\LL	.	.	.	.	.
.	.	.	16a/	.	16aa\JJ	.	.	.	.	.
8D\	.	.	16a/	.	16ff#\LL	.	.	.	.	.
.	.	.	16a/	.	16ee\JJ	.	.	.	.	.
8D\J	.	.	16a/	.	32cc#X\LLL	.	.	.	.	.
.	.	.	.	.	32dd\	.	.	.	.	.
.	.	.	16a/JJ	.	32a\	.	.	.	.	.
.	.	.	.	.	32ccn\JJJ	.	.	.	.	.
*Xtremolo	*	*	*Xtremolo	*	*	*	*	*	*	*
=44	=44	=44	=44	=44	=44	=44	=44	=44	=44	=44
!LO:TX:a:t=P:problem:mixed beam	!	!	!	!	!	!	!	!	!	!
!	!	!	!	!	!	!	!	!	!LO:N:vis=0	!
8G\L	.	.	32b\LLL	.	32b\LLL	.	2ryy	2ryy	1r	.
.	.	.	32ee\	.	32gg\	.	.	.	.	.
.	.	.	32dd\	.	32ff#\	.	.	.	.	.
.	.	.	32ee\JJJ	.	32gg\JJJ	.	.	.	.	.
8c\	.	.	32dd\LLL	.	32ff#\LLL	.	.	.	.	.
.	.	.	32cc\	.	32ee\	.	.	.	.	.
.	.	.	32b\	.	32dd\	.	.	.	.	.
.	.	.	32a\JJJ	.	32cc\JJJ	.	.	.	.	.
8d\	4	.	8g/L	.	8b/L	.	.	.	.	.
8D/J	#	.	8f#/J	.	8a/J	.	.	.	.	.
=45	=45	=45	=45	=45	=45	=45	=45	=45	=45	=45
8G\L	.	.	8g/L	.	8g/L	.	2ryy	2ryy	.	.
8D\J	.	.	8d/J	.	8d/J	.	.	.	.	.
4GG/	.	.	4G/	.	4G/	.	.	.	.	.
==	==	==	==	==	==	==	==	==	==	==
*-	*-	*-	*-	*-	*-	*-	*-	*-	*-	*-
!!!system-decoration: [g1][g2]s6
!!!ENC:Kamil Watkowski
!!!END:2020-05-23
!!!ENC: Marta Lawrence
!!!END: 2020-11-09
